ui/StatusQ/src/assets/img/icons/keycard.svg

<svg fill="none" height="24" viewBox="0 0 24 24" width="24" xmlns="http://www.w3.org/2000/svg"><g fill="#000"><path d="m7 10c-.55228 0-1 .4477-1 1v2c0 .5523.44772 1 1 1h1c.55228 0 1-.4477 1-1v-2c0-.5523-.44772-1-1-1z"/><path clip-rule="evenodd" d="m2 8c0-2.20914 1.79086-4 4-4h12c2.2091 0 4 1.79086 4 4v8c0 2.2091-1.7909 4-4 4h-12c-2.20914 0-4-1.7909-4-4zm4-2.5h12c1.3807 0 2.5 1.11929 2.5 2.5v8c0 1.3807-1.1193 2.5-2.5 2.5h-12c-1.38071 0-2.5-1.1193-2.5-2.5v-8c0-1.38071 1.11929-2.5 2.5-2.5z" fill-rule="evenodd"/></g></svg>

<svg width="24" height="24" viewBox="0 0 24 24" fill="none" xmlns="http://www.w3.org/2000/svg">
<path d="M7 10C6.44772 10 6 10.4477 6 11V13C6 13.5523 6.44772 14 7 14H8C8.55228 14 9 13.5523 9 13V11C9 10.4477 8.55228 10 8 10H7Z" fill="black"/>
<path fill-rule="evenodd" clip-rule="evenodd" d="M2 8C2 5.79086 3.79086 4 6 4H18C20.2091 4 22 5.79086 22 8V16C22 18.2091 20.2091 20 18 20H6C3.79086 20 2 18.2091 2 16V8ZM6 5.5H18C19.3807 5.5 20.5 6.61929 20.5 8V16C20.5 17.3807 19.3807 18.5 18 18.5H6C4.61929 18.5 3.5 17.3807 3.5 16V8C3.5 6.61929 4.61929 5.5 6 5.5Z" fill="black"/>
</svg>
